X:84
T:We are all a Coming. THO5.084
M:2/4
L:1/8
B:Thompson's Complete Collection of 200 Favourite Dances Vol.5
F:https://www.libraryofdance.org/manuals/1780c-Thompson-Compleat-5.pdf
Z:vmp. Peter Dunk 2024
Q:1/4=140
K:D
a2 (fd)|(cd)(cd)|BGFE|DFAd|\\
a2 (fd)|(cd)(cd)|BGFE|{E2}D4:|
|:DAFA|DBGB|gedc|dAFD|\\
DAFA|DBGB|gedc|d2D2:|
W:
W:Hey contrary side ./.
W:then on your own sides ./:
W:Gallop down and up, cast off :/.
W:Right and Left :/:

